app/assets/images/general/icons/socials/facebook.svg

<svg width="9" height="17" viewBox="0 0 9 17" fill="none" xmlns="http://www.w3.org/2000/svg">
<path d="M8.291 9.32361L8.751 6.32361H5.872V4.38261C5.85244 4.159 5.88332 3.93386 5.96235 3.72377C6.04138 3.51368 6.16656 3.32401 6.32865 3.16874C6.49073 3.01346 6.6856 2.89654 6.89889 2.8266C7.11217 2.75666 7.33844 2.73547 7.561 2.76461H8.868V0.210609C8.10058 0.087469 7.32517 0.020624 6.548 0.0106085C6.01316 -0.0302121 5.47589 0.0470892 4.97426 0.237035C4.47262 0.426981 4.0189 0.724924 3.64523 1.10975C3.27157 1.49458 2.98711 1.95688 2.81201 2.46388C2.63691 2.97089 2.57546 3.5102 2.632 4.04361V6.32761H0V9.32761H2.632V16.5716H5.872V9.32361H8.291Z" fill="white"/>
</svg>

<svg width="9" height="17" fill="none" xmlns="http://www.w3.org/2000/svg"><path d="M8.291 9.324l.46-3H5.872V4.383a1.5 1.5 0 011.689-1.618h1.307V.21a15.94 15.94 0 00-2.32-.2 3.658 3.658 0 00-3.916 4.033v2.284H0v3h2.632v7.244h3.24V9.324h2.419z" fill="#fff"/></svg>
